public/img/icono.svg

<?xml version="1.0" encoding="UTF-8"?>
<svg width="500px" height="500px" viewBox="0 0 500 500" version="1.1" xmlns="http://www.w3.org/2000/svg" xmlns:xlink="http://www.w3.org/1999/xlink">
    <!-- Generator: Sketch 44.1 (41455) - http://www.bohemiancoding.com/sketch -->
    <title>web/icono</title>
    <desc>Created with Sketch.</desc>
    <defs></defs>
    <g id="Web" stroke="none" stroke-width="1" fill="none" fill-rule="evenodd">
        <g id="icono" fill="#000000">
            <g id="ellugar_white">
                <path d="M31.25,77.3058124 L31.25,422.694188 C31.25,448.134521 51.8672282,468.75 77.3058124,468.75 L422.694188,468.75 C448.134521,468.75 468.75,448.132772 468.75,422.694188 L468.75,77.3058124 C468.75,51.8654787 448.132772,31.25 422.694188,31.25 L77.3058124,31.25 C51.8654787,31.25 31.25,51.8672282 31.25,77.3058124 Z M0,62.5034534 C0,27.9837493 27.9760711,0 62.5034534,0 L437.496547,0 C472.016251,0 500,27.9760711 500,62.5034534 L500,437.496547 C500,472.016251 472.023929,500 437.496547,500 L62.5034534,500 C27.9837493,500 0,472.023929 0,437.496547 L0,62.5034534 Z" id="Border" fill-rule="nonzero"></path>
                <g id="dot_black" transform="translate(187.500000, 181.250000)" fill-rule="evenodd">
                    <path d="M62.5,138 C62.5,138 125,100.363636 125,62.7272727 C125,28.0839566 97.0177969,0 62.5,0 C27.9822031,0 0,28.0839566 0,62.7272727 C0,100.363636 62.5,138 62.5,138 Z" id="Dot"></path>
                </g>
            </g>
        </g>
    </g>
</svg>

<svg width="500" height="500" viewBox="0 0 500 500" xmlns="http://www.w3.org/2000/svg"><title>web/icono</title><g fill-rule="evenodd"><path d="M31.25 77.306v345.388c0 25.44 20.617 46.056 46.056 46.056h345.388c25.44 0 46.056-20.617 46.056-46.056V77.306c0-25.44-20.617-46.056-46.056-46.056H77.306c-25.44 0-46.056 20.617-46.056 46.056zM0 62.503C0 27.983 27.976 0 62.503 0h374.994C472.017 0 500 27.976 500 62.503v374.994c0 34.52-27.976 62.503-62.503 62.503H62.503C27.983 500 0 472.024 0 437.497V62.503z" fill-rule="nonzero"/><path d="M250 319.25s62.5-37.636 62.5-75.273c0-34.643-27.982-62.727-62.5-62.727s-62.5 28.084-62.5 62.727c0 37.637 62.5 75.273 62.5 75.273z"/></g></svg>
